public/img/AboutUs/hilti-about.svg

<svg width="384" height="92" viewBox="0 0 384 92" fill="none" xmlns="http://www.w3.org/2000/svg">
<path d="M383.951 0.0517578H0V91.3188H383.951V0.0517578Z" fill="#414141" fill-opacity="0.2"/>
<path fill-rule="evenodd" clip-rule="evenodd" d="M25.1772 23.6562H50.9629V35.7552H97.0795V23.6562H122.865V70.0766H97.0795V57.7307H50.9629V70.0766H25.1772V23.6562ZM154.105 23.6562H128.32V70.0766H154.105V23.6562ZM160.552 23.6562H186.338V48.5948H240.884V70.0766H186.338H160.552V23.6562ZM220.057 23.6562H261.959H287.745H328.654V44.6442H287.745V70.0766H261.959V44.6442H220.057V23.6562ZM335.349 23.6562H361.134V70.0766H335.349V23.6562Z" fill="white"/>
</svg>

<svg width="384" height="92" fill="none" xmlns="http://www.w3.org/2000/svg"><path d="M383.951.052H0v91.267h383.951V.052Z" fill="#414141" fill-opacity=".2"/><path fill-rule="evenodd" clip-rule="evenodd" d="M25.177 23.656h25.786v12.1h46.116v-12.1h25.786v46.42H97.08V57.732H50.962v12.346H25.177v-46.42Zm128.928 0H128.32v46.42h25.785v-46.42Zm6.447 0h25.786v24.939h54.546v21.482h-80.332v-46.42Zm59.505 0H328.654v20.988h-40.909v25.433h-25.786V44.644h-41.902V23.656Zm115.292 0h25.785v46.42h-25.785v-46.42Z" fill="#fff"/></svg>
